X: 191
T: Tapuach Hineni
O: Israel
F: http://www.youtube.com/watch?v=JICwhCA5ego
M: 4/4
L: 1/8
Q: 1/4=120
K: C
%%MIDI gchord fzfz
|:"C" G4- "G" G2F2|"C"E4-"G"E4   |"C"G3A"G"G2F2|\
  "C"E2C2 "F"A2A2 |"C"G3A"G"G2F2 |"C"E4-"G"E4  :|
  "G"F3G"F"A2A2   |"F"A4"G"G2F2  |"C"G3A"G"G2F2|"C"E4-"G"E4|
  "G"F3G"F"A2A2   |"F"A2A2"G"G2F2|"C"EFG2-"G"G4|EFG6       |



